X: 10952
T: LADY CHARLOTTE CAMPBELLS STRATHSPEY
Q: "Slowish"
R: strathspey
B: "Edinburgh Repository of Music" v.1 p.95 #2
F: http://digital.nls.uk/special-collections-of-printed-music/pageturner.cfm?id=87776133
Z: 2015 John Chambers <jc:trillian.mit.edu>
M: C
L: 1/8
K: G
c !segno!|\
{Bc}d>cBG A>cB>c | {Bc}d>cBG EAFD |\
{Bc}d>cBG Ac Bc/d/ | ecAF G2G :|\
d |\
g/f/g/a/ gd Bgdg | {a}gf/e/ f>g aAAf |
(g/f/g/a/) gd BgdB | e>cAF {F}G2Gd |\
g/f/g/a/ gd Bgdg | {a}gf/e/ Tf>g aAAf |\
gdbf gdec | BdDF G/F/G/A/ B/A/B/c/ !segno!|]
